X:1
T:Title
%%score { 1 | 2 }
L:1/8
M:6/8
K:Bb
V:1 treble nm="Grand Piano"
V:2 bass 
V:1
 z3 z2[Q:1/4=100] D | B2 B A2 A | G2 G D2 D | B2 B A2 A | G2 G D2 D | [Fd]2 [Fd] [Ec]2 [Ec] | %6
 [DB]2 [DB] F2 F | G2 G A2 A | B3 c2 d | [Ge]2 [Ge] [Fd]2 [Ec] |[M:5/8] [DB]-[DB]- [DB]3 |] %11
V:2
 z3 z2 D, | [G,D]2 [G,D] [D,^F,C]2 [D,F,C] | [G,B,]2 [G,B,] D,2 D, | %3
 [G,D]2 [G,D] [D,^F,C]2 [D,F,C] | [G,B,]2 [G,B,] D,2 D, | [B,,B,]2 [B,,B,] [F,A,]2 [F,A,] | %6
 [B,,B,]2 [B,,B,] [D,B,]2 [D,B,] | [E,B,E]2 [E,B,E] [F,E]2 [F,CE] | [G,B,D]3 [A,F]2 [B,F] | %9
 [E,B,]2 [E,B,] [F,B,]2 [F,A,] |[M:5/8] [B,,B,]-[B,,B,]- [B,,B,]3 |] %11

